X: 26276
T: Melbourne Sleeper, The
R: jig
M: 6/8
K: Dmajor
|:A|deA efa|f2 d eBA|BBA dBA|BBB BAB|
ddd eAB|dea f2e|BBA cAc|cdd d2:|
|:A|BBA BdA|BBB BAG|ABd dAB|def e2 A|
[1BdA BBB|BAG GAB|A2 d BAc|cdd d2:|
[2deA efa|f2d eBA|BBA cAc|cdd d2||

